SVG_Azure_Grouped/Compute/Cloud service (classic).svg

<?xml version="1.0" encoding="UTF-8" standalone="no"?>
<!-- Generated by Microsoft Visio, SVG Export Cloud service (classic).svg Page-1 -->

<svg
   xmlns:dc="http://purl.org/dc/elements/1.1/"
   xmlns:cc="http://creativecommons.org/ns#"
   xmlns:rdf="http://www.w3.org/1999/02/22-rdf-syntax-ns#"
   xmlns:svg="http://www.w3.org/2000/svg"
   xmlns="http://www.w3.org/2000/svg"
   xmlns:sodipodi="http://sodipodi.sourceforge.net/DTD/sodipodi-0.dtd"
   xmlns:inkscape="http://www.inkscape.org/namespaces/inkscape"
   width="0.78735918in"
   height="0.66916579in"
   viewBox="0 0 56.689929 48.180058"
   xml:space="preserve"
   class="st4"
   version="1.1"
   id="svg29"
   sodipodi:docname="Cloud service (classic).svg"
   style="font-size:12px;overflow:visible;color-interpolation-filters:sRGB;fill:none;fill-rule:evenodd;stroke-linecap:square;stroke-miterlimit:3"
   inkscape:version="0.92.5 (2060ec1f9f, 2020-04-08)"><metadata
   id="metadata35"><rdf:RDF><cc:Work
       rdf:about=""><dc:format>image/svg+xml</dc:format><dc:type
         rdf:resource="http://purl.org/dc/dcmitype/StillImage" /></cc:Work></rdf:RDF></metadata><defs
   id="defs33" /><sodipodi:namedview
   pagecolor="#ffffff"
   bordercolor="#666666"
   borderopacity="1"
   objecttolerance="10"
   gridtolerance="10"
   guidetolerance="10"
   inkscape:pageopacity="0"
   inkscape:pageshadow="2"
   inkscape:window-width="640"
   inkscape:window-height="480"
   id="namedview31"
   showgrid="false"
   inkscape:zoom="1.8741153"
   inkscape:cx="37.795171"
   inkscape:cy="17.602542"
   inkscape:window-x="0"
   inkscape:window-y="0"
   inkscape:window-maximized="0"
   inkscape:current-layer="svg29" />
	<style
   type="text/css"
   id="style2">
	<![CDATA[
		.st1 {fill:#59b4d9;stroke:none;stroke-linecap:butt;stroke-width:12.24}
		.st2 {fill:#ffffff;stroke:none;stroke-linecap:butt;stroke-width:12.24}
		.st3 {fill:#b8d432;stroke:none;stroke-linecap:butt;stroke-width:12.24}
		.st4 {fill:none;fill-rule:evenodd;font-size:12px;overflow:visible;stroke-linecap:square;stroke-miterlimit:3}
	]]>
	</style>

	<g
   id="g27"
   transform="translate(-12.240054,-12.244281)">
		<title
   id="title4">Page-1</title>
		<g
   id="group11613-1"
   transform="translate(12.24,-34.0157)">
			<title
   id="title6">Cloud service (classic).11613</title>
			<g
   id="group11614-2">
				<title
   id="title8">Sheet.11614</title>
				<g
   id="shape11615-3">
					<title
   id="title10">Sheet.11615</title>
					<path
   d="m 49.14,62.9 c 0.22,-1.03 0.33,-2.02 0.33,-3 0,-7.52 -6.12,-13.64 -13.65,-13.64 a 13.6063,13.6275 -180 0 0 -12.25,7.65 9.82035,9.83562 -180 0 0 -6.94,-2.87 c -5.4,0 -9.79,4.4 -9.79,9.81 0,0.73 0.08,1.47 0.25,2.23 C 2.64,64.9 0,68.66 0,73.24 0,79.42 5.04,84.25 11.47,84.25 h 0.73 c 0.12,5.64 4.74,10.19 10.39,10.19 a 10.3612,10.3773 -180 0 0 9.07,-5.31 7.54016,7.55189 -180 0 0 4.94,1.85 c 3.88,0 7.09,-2.94 7.54,-6.73 h 1.09 c 6.43,0 11.46,-4.83 11.46,-11.01 0,-4.77 -2.88,-8.69 -7.55,-10.34 z"
   class="st1"
   id="path12"
   inkscape:connector-curvature="0"
   style="fill:#59b4d9;stroke:none;stroke-width:12.23999977;stroke-linecap:butt" />
				</g>
				<g
   id="shape11616-5"
   transform="translate(13.307,-8.04929)">
					<title
   id="title15">Sheet.11616</title>
					<path
   d="m 31.41,76.1 0.83,-1.98 -0.24,-0.21 -1.82,-1.58 0.01,-1.61 2.05,-1.84 -0.8,-1.99 -0.32,0.03 -2.41,0.17 -1.13,-1.14 0.16,-2.76 -1.98,-0.84 -0.21,0.24 -1.58,1.83 -1.6,-0.01 -1.84,-2.06 -1.99,0.81 0.03,0.32 0.17,2.41 -1.14,1.13 -2.75,-0.15 -0.84,1.97 0.24,0.21 1.83,1.59 -0.01,1.6 -2.06,1.84 0.81,1.99 0.32,-0.02 2.41,-0.17 1.12,1.14 -0.15,2.76 1.97,0.83 0.21,-0.24 1.58,-1.83 1.61,0.02 1.83,2.05 1.99,-0.8 -0.02,-0.32 -0.17,-2.42 1.14,-1.12 z m -9.99,-0.57 a 4.39025,4.39708 0 1 1 3.41,-8.1 4.39025,4.39708 0 0 1 -3.41,8.1 z m -2.57,10.51 v -2.15 l -0.31,-0.09 -2.29,-0.76 -0.61,-1.48 1.18,-2.49 -1.52,-1.52 -0.28,0.14 -2.16,1.09 -1.48,-0.61 -0.92,-2.6 H 8.31 l -0.1,0.3 -0.75,2.3 L 5.98,78.78 3.49,77.6 1.98,79.12 2.12,79.41 3.21,81.56 2.6,83.04 0,83.97 v 2.15 l 0.3,0.1 2.3,0.75 0.61,1.48 -1.18,2.5 1.52,1.52 0.28,-0.15 2.16,-1.09 1.47,0.61 0.93,2.6 h 2.14 l 0.1,-0.3 0.76,-2.3 1.47,-0.61 2.49,1.18 1.52,-1.52 -0.14,-0.28 -1.09,-2.16 0.61,-1.48 z M 9.42,89.4 A 4.39087,4.3977 0 1 1 9.43,80.61 4.39087,4.3977 0 0 1 9.42,89.4 Z"
   class="st2"
   id="path17"
   inkscape:connector-curvature="0"
   style="fill:#ffffff;stroke:none;stroke-width:12.23999977;stroke-linecap:butt" />
				</g>
				<g
   id="shape11617-7"
   transform="translate(19.8822,-14.6331)">
					<title
   id="title20">Sheet.11617</title>
					<path
   d="m 19.18,79.18 a 2.84939,2.85382 0 1 1 -5.25,-2.22 2.84939,2.85382 0 0 1 5.25,2.22 z M 5.7,91.59 a 2.85,2.8544309 0 0 1 -5.7,0 2.85,2.8544309 0 0 1 5.7,0 z"
   class="st3"
   id="path22"
   inkscape:connector-curvature="0"
   style="fill:#b8d432;stroke:none;stroke-width:12.23999977;stroke-linecap:butt" />
				</g>
			</g>
		</g>
	</g>
</svg>

<?xml version="1.0" encoding="UTF-8" standalone="no"?>
<!DOCTYPE svg PUBLIC "-//W3C//DTD SVG 1.1//EN" "http://www.w3.org/Graphics/SVG/1.1/DTD/svg11.dtd">
<!-- Generated by Microsoft Visio, SVG Export Cloud service (classic).svg Page-1 -->
<svg xmlns="http://www.w3.org/2000/svg" xmlns:xlink="http://www.w3.org/1999/xlink" xmlns:ev="http://www.w3.org/2001/xml-events"
		width="1.1274in" height="1.31173in" viewBox="0 0 81.1729 94.4448" xml:space="preserve" color-interpolation-filters="sRGB"
		class="st4">
	<style type="text/css">
	<![CDATA[
		.st1 {fill:#59b4d9;stroke:none;stroke-linecap:butt;stroke-width:12.24}
		.st2 {fill:#ffffff;stroke:none;stroke-linecap:butt;stroke-width:12.24}
		.st3 {fill:#b8d432;stroke:none;stroke-linecap:butt;stroke-width:12.24}
		.st4 {fill:none;fill-rule:evenodd;font-size:12px;overflow:visible;stroke-linecap:square;stroke-miterlimit:3}
	]]>
	</style>

	<g>
		<title>Page-1</title>
		<g id="group11334-1" transform="translate(12.24,-34.0157)">
			<title>Cloud service (classic).11334</title>
			<g id="group11335-2">
				<title>Sheet.11335</title>
				<g id="shape11336-3">
					<title>Sheet.11336</title>
					<path d="M49.14 62.9 C49.36 61.87 49.47 60.88 49.47 59.9 C49.47 52.38 43.35 46.26 35.82 46.26 A13.6063 13.6275
								 -180 0 0 23.57 53.91 A9.82035 9.83562 -180 0 0 16.63 51.04 C11.23 51.04 6.84 55.44 6.84 60.85 C6.84
								 61.58 6.92 62.32 7.09 63.08 C2.64 64.9 0 68.66 0 73.24 C0 79.42 5.04 84.25 11.47 84.25 L12.2 84.25
								 C12.32 89.89 16.94 94.44 22.59 94.44 A10.3612 10.3773 -180 0 0 31.66 89.13 A7.54016 7.55189 -180
								 0 0 36.6 90.98 C40.48 90.98 43.69 88.04 44.14 84.25 L45.23 84.25 C51.66 84.25 56.69 79.42 56.69
								 73.24 C56.69 68.47 53.81 64.55 49.14 62.9 Z" class="st1"/>
				</g>
				<g id="shape11337-5" transform="translate(13.307,-8.04929)">
					<title>Sheet.11337</title>
					<path d="M31.41 76.1 L32.24 74.12 L32 73.91 L30.18 72.33 L30.19 70.72 L32.24 68.88 L31.44 66.89 L31.12 66.92
								 L28.71 67.09 L27.58 65.95 L27.74 63.19 L25.76 62.35 L25.55 62.59 L23.97 64.42 L22.37 64.41 L20.53
								 62.35 L18.54 63.16 L18.57 63.48 L18.74 65.89 L17.6 67.02 L14.85 66.87 L14.01 68.84 L14.25 69.05
								 L16.08 70.64 L16.07 72.24 L14.01 74.08 L14.82 76.07 L15.14 76.05 L17.55 75.88 L18.67 77.02 L18.52
								 79.78 L20.49 80.61 L20.7 80.37 L22.28 78.54 L23.89 78.56 L25.72 80.61 L27.71 79.81 L27.69 79.49
								 L27.52 77.07 L28.66 75.95 L31.41 76.1 ZM21.42 75.53 A4.39025 4.39708 0 1 1 24.83 67.43 A4.39025
								 4.39708 0 0 1 21.42 75.53 ZM18.85 86.04 L18.85 83.89 L18.54 83.8 L16.25 83.04 L15.64 81.56 L16.82
								 79.07 L15.3 77.55 L15.02 77.69 L12.86 78.78 L11.38 78.17 L10.46 75.57 L8.31 75.57 L8.21 75.87 L7.46
								 78.17 L5.98 78.78 L3.49 77.6 L1.98 79.12 L2.12 79.41 L3.21 81.56 L2.6 83.04 L0 83.97 L0 86.12 L0.3
								 86.22 L2.6 86.97 L3.21 88.45 L2.03 90.95 L3.55 92.47 L3.83 92.32 L5.99 91.23 L7.46 91.84 L8.39 94.44
								 L10.53 94.44 L10.63 94.14 L11.39 91.84 L12.86 91.23 L15.35 92.41 L16.87 90.89 L16.73 90.61 L15.64
								 88.45 L16.25 86.97 L18.85 86.04 ZM9.42 89.4 A4.39087 4.3977 0 1 1 9.43 80.61 A4.39087 4.3977 0 0
								 1 9.42 89.4 Z" class="st2"/>
				</g>
				<g id="shape11338-7" transform="translate(19.8822,-14.6331)">
					<title>Sheet.11338</title>
					<path d="M19.18 79.18 A2.84939 2.85382 0 1 1 13.93 76.96 A2.84939 2.85382 0 0 1 19.18 79.18 ZM5.7 91.59 A2.84939
								 2.85382 0 0 1 -0 91.59 A2.84939 2.85382 0 0 1 5.7 91.59 Z" class="st3"/>
				</g>
			</g>
		</g>
	</g>
</svg>
